lib/healthicons/icons/solid/typography/dollar.svg

<svg fill="none" height="48" viewBox="0 0 48 48" width="48" xmlns="http://www.w3.org/2000/svg"><path clip-rule="evenodd" d="m26 8c0-1.10457-.8954-2-2-2s-2 .89543-2 2v2c-4.4183 0-8 3.5817-8 8s3.5817 8 8 8v8c-1.7385 0-3.2228-1.1102-3.7729-2.6665-.3681-1.0414-1.5107-1.5873-2.5522-1.2192-1.0414.3681-1.5873 1.5108-1.2192 2.5522 1.0973 3.1045 4.0579 5.3335 7.5443 5.3335v2c0 1.1046.8954 2 2 2s2-.8954 2-2v-2c4.4183 0 8-3.5817 8-8s-3.5817-8-8-8v-8c1.7385 0 3.2228 1.1102 3.7729 2.6665.3681 1.0414 1.5107 1.5873 2.5522 1.2192 1.0414-.3681 1.5873-1.5108 1.2192-2.5522-1.0973-3.1045-4.0579-5.3335-7.5443-5.3335zm-4 6c-2.2091 0-4 1.7909-4 4s1.7909 4 4 4zm4 12v8c2.2091 0 4-1.7909 4-4s-1.7909-4-4-4z" fill="#333" fill-rule="evenodd"/></svg>

<svg width="48" height="48" viewBox="0 0 48 48" fill="none" xmlns="http://www.w3.org/2000/svg">
<path fill-rule="evenodd" clip-rule="evenodd" d="M26 8C26 6.89543 25.1046 6 24 6C22.8954 6 22 6.89543 22 8V10C17.5817 10 14 13.5817 14 18C14 22.4183 17.5817 26 22 26V34C20.2615 34 18.7772 32.8898 18.2271 31.3335C17.859 30.2921 16.7164 29.7462 15.6749 30.1143C14.6335 30.4824 14.0876 31.6251 14.4557 32.6665C15.553 35.771 18.5136 38 22 38L22 40C22 41.1046 22.8954 42 24 42C25.1046 42 26 41.1046 26 40L26 38C30.4183 38 34 34.4183 34 30C34 25.5817 30.4183 22 26 22V14C27.7385 14 29.2228 15.1102 29.7729 16.6665C30.141 17.7079 31.2836 18.2538 32.3251 17.8857C33.3665 17.5176 33.9124 16.3749 33.5443 15.3335C32.447 12.229 29.4864 10 26 10V8ZM22 14C19.7909 14 18 15.7909 18 18C18 20.2091 19.7909 22 22 22V14ZM26 26V34C28.2091 34 30 32.2091 30 30C30 27.7909 28.2091 26 26 26Z" fill="#333333"/>
</svg>
